projects/vfh1/img/icons-service/person-rounded.svg

<svg viewBox="0 0 24 24" fill="none" xmlns="http://www.w3.org/2000/svg">
<path d="M12 12C10.7625 12 9.70313 11.5594 8.82188 10.6781C7.94063 9.79687 7.5 8.7375 7.5 7.5C7.5 6.2625 7.94063 5.20313 8.82188 4.32188C9.70313 3.44063 10.7625 3 12 3C13.2375 3 14.2969 3.44063 15.1781 4.32188C16.0594 5.20313 16.5 6.2625 16.5 7.5C16.5 8.7375 16.0594 9.79687 15.1781 10.6781C14.2969 11.5594 13.2375 12 12 12ZM5.25 21C4.63125 21 4.10175 20.7799 3.6615 20.3396C3.2205 19.8986 3 19.3687 3 18.75V17.85C3 17.2125 3.16425 16.6264 3.49275 16.0916C3.8205 15.5576 4.25625 15.15 4.8 14.8688C5.9625 14.2875 7.14375 13.8514 8.34375 13.5604C9.54375 13.2701 10.7625 13.125 12 13.125C13.2375 13.125 14.4563 13.2701 15.6562 13.5604C16.8562 13.8514 18.0375 14.2875 19.2 14.8688C19.7437 15.15 20.1795 15.5576 20.5072 16.0916C20.8358 16.6264 21 17.2125 21 17.85V18.75C21 19.3687 20.7799 19.8986 20.3396 20.3396C19.8986 20.7799 19.3687 21 18.75 21H5.25Z" fill="#42474D"/>
</svg>

<svg viewBox="0 0 24 24" fill="none" xmlns="http://www.w3.org/2000/svg"><path d="M12 12c-1.238 0-2.297-.44-3.178-1.322C7.94 9.797 7.5 8.738 7.5 7.5c0-1.237.44-2.297 1.322-3.178C9.703 3.44 10.762 3 12 3s2.297.44 3.178 1.322c.881.881 1.322 1.94 1.322 3.178s-.44 2.297-1.322 3.178C14.297 11.56 13.238 12 12 12zm-6.75 9c-.619 0-1.148-.22-1.588-.66A2.168 2.168 0 013 18.75v-.9c0-.638.164-1.224.493-1.758A3.277 3.277 0 014.8 14.869a16.722 16.722 0 013.544-1.309c1.2-.29 2.418-.435 3.656-.435s2.456.145 3.656.435c1.2.291 2.382.727 3.544 1.309.544.281.98.689 1.307 1.223.329.534.493 1.12.493 1.758v.9a2.17 2.17 0 01-.66 1.59 2.17 2.17 0 01-1.59.66H5.25z" fill="#42474D"/></svg>
